X:1
T:Ernakulam, 87.87 D
T:Ernakulam, 87.87 D
T:Lizzie M. Wallace, 1902
T:Public Domain Courtesy of the Cyber Hymnal™
C:Lizzie M. Wallace, 1902
Z:Public Domain
Z:Courtesy of the Cyber Hymnal™
%%score 1 2
L:1/8
Q:1/4=95
M:3/4
K:Bb
V:1 treble 
V:2 bass 
V:1
 [B,D][CE] | [DF]3 [DF] [EG][DF] | [DB]2 [DF]2 [DF][DF] | [EG]3 [GB] [FA][EG] | [DF]4 [B,D][B,D] | %5
 [CE]3 [A,C] [B,D][CE] | [EG]2 [DF]2 [B,D][B,D] | [A,C]3 [CF] [CF][C=E] | [CF]4 [DF][DB] | %9
 [Fd]3 [FB] [EA][Ec] | [DB]2 [DF]2 [DF][DF] | [EG]3 [FB] [Fe][Fd] | [Fc]4 [Fd][Fe] | %13
 [Ff]3 [Fd] [Fe][Fd] | [Ec]2 [EG]2 [EA][EB] | [DF][DB] [Fd]2 [Ec]2 | [DB]4 |] %17
V:2
 [B,,F,][B,,F,] | [B,,B,]3 [B,,B,] [B,,B,][B,,B,] | [B,,F,]2 [B,,B,]2 [B,,B,][B,,B,] | %3
 [E,B,]3 [E,G,] [E,A,][E,B,] | [B,,B,]4 [B,,F,][B,,G,] | [F,,F,]3 [F,,F,] [F,,F,][F,,A,] | %6
 [B,,B,]2 [B,,B,]2 [B,,F,][B,,F,] | [C,F,]3 [C,A,] [C,G,][C,B,] | [F,A,]4 [B,,B,][B,,B,] | %9
 [B,,B,]3 [B,,D] [F,C][F,A,] | [B,,B,]2 [B,,B,]2 [B,,B,][B,,B,] | [E,B,]3 [D,B,] [C,A,][B,,B,] | %12
 [F,A,]4 [B,,B,][B,,C] | [B,,D]3 [B,,B,] [C,A,][D,B,] | [E,G,]2 [E,B,]2 [E,A,][E,G,] | %15
 [F,B,][F,B,] [F,B,]2 [F,A,]2 | [B,,B,]4 |] %17

